X:1
T:Farewell to Old Bedford
M:3/4
L:1/4
K:Am
A2 | A2 G2 A2 | E2 D2 (CA,) | (CA,) C2 D2 | E2 G2 (G2 | (3ABA) G2 A2 |
Ac A2 A2 | GG E2 D2 | D4 G2 | G2 A2 A2 | c4 c>d | e2 d2 (cA) |
A2 G2 G2 | A A3 c2 | (d3 A) c>d | (ed) (c2AG) A2 | A4 |]
